X: 127201
T: CUMBERLAND REEL
P: Same figure.
%R: jig
B: James Kerr "Merry Melodies" v.1 p.27 s.2 #1
Z: 2017 John Chambers <jc:trillian.mit.edu>
N: The "Same figure" annotation is a mystery.
M: 6/8
L: 1/8
K: D
|: uA |\
vf2ve ud2uc | d2B A2F | GFG EFG | F2G A2A |\
B2G d2B | A2F d2d | cde ABc | d3 d2 :| ue |\
vf2vf uf2ue | f2f f3 | f2f g2f | e2e e3 |
d2d d2c | d2d d3 | d2B e2d | c2B ABc |\
d2d cBA | B2c d2A | ded cBA | B2c d3 |\
e2e e2e | e2e efg | a2a ABc | d3 d2 |]

%%sep 1 1 500
%%sep 1 1 500

